X: 2423
T: Ballinafad
R: polka
M: 2/4
K: Gmajor
B2 B/A/B/c/|BG G>B|AG FG|AB cA|
B2 B/A/B/c/|BG G>B|AG FE|D2 DB/c/||
dg dB|cA Ad/c/|BG EF|GF ED|
B2 B/A/B/c/|BG G>e|dg f/g/a/f/|g2 ga||
b2 b/a/g/f/|g2 gd|f2 f/e/d/B/|c2 cd/c/|
Bd gd|cA B/c/d|e2 f2|g2 ga||
b2 b/a/g/f/|g2 gd|f2 f/e/d/B/|c2 cd/c/|
Bd gd|cA B/c/d|e2 f2|g>a gd||

